X: 33613
T: Rakish Paddy
R: reel
M: 4/4
K: Edorian
|:G3 F G2 EF|GFED BD D2|EAA^G AGEA|AGED D2 EF|
G3A G2 EF|GFFD BcdB|A2 A2 EFGE|AGED cA A2:|
|:Bd d2 ed d2|Bd d2 BA (3F^GA|Be e2 fe e2|Beed BA (3F^GA|
Bd d2 ed d2|BccB ABcd|ec (3dcB cAB^G|AGED cA A2:|
|:GEEF GEEF|GEED BA A2|AGBG AGBG|A=GED (3Bcd ed|
GEEF GEAF|GEED BcdB|A2 A2 EFGE|1 AGED D2 EF:|2 AGED cA A2||
|:Bd d2 Bd d2|Bd d2 BA (3FGA|Be e2 fe e2|Beed BA (3FGA|
Bc (3dcB ec (3dcB|cAB^G ABcd|ec (3dcB (3cBA B^G|1 AGED cA A2:|2 AGED D2 EF||

